X: 11163
T: Duncan Gray
R: reel
M: 4/4
K: Gmajor
"G"DG FG|"D7"ABF2|"G"G2"Am"A>c|1 "G"BGG2:|2 "G"BG Gd||
"G"Bd dc/B/|"C"ccc2|"Am"cB AG|"D7"F/G/A/F/ D2|
"G"dB"Am"cA|"G"BG"D7"A2|"G"G2"Am"A>c|"G"BGG2||

